symbols/web/link/materialsymbolsrounded/link_wght200_20px.svg

<svg xmlns="http://www.w3.org/2000/svg" height="20" width="20"><path d="M5.833 13.396q-1.416 0-2.406-.99-.989-.989-.989-2.406 0-1.417.989-2.406.99-.99 2.406-.99h2.521q.167 0 .313.136.145.135.145.322 0 .167-.145.313-.146.146-.313.146H5.833q-1.062 0-1.771.708-.708.709-.708 1.771 0 1.062.708 1.771.709.708 1.771.708h2.521q.167 0 .313.146.145.146.145.313 0 .187-.145.322-.146.136-.313.136Zm1.709-2.938q-.188 0-.323-.146-.136-.145-.136-.312 0-.188.136-.323.135-.135.323-.135h4.916q.188 0 .323.146.136.145.136.312 0 .188-.136.323-.135.135-.323.135Zm4.104 2.938q-.167 0-.313-.136-.145-.135-.145-.322 0-.167.145-.313.146-.146.313-.146h2.521q1.062 0 1.771-.708.708-.709.708-1.771 0-1.062-.708-1.771-.709-.708-1.771-.708h-2.521q-.167 0-.313-.146-.145-.146-.145-.313 0-.187.145-.322.146-.136.313-.136h2.521q1.416 0 2.406.99.989.989.989 2.406 0 1.417-.989 2.406-.99.99-2.406.99Z"/></svg>

<svg xmlns="http://www.w3.org/2000/svg" height="20" width="20"><path d="M5.833 13.396Q4.417 13.396 3.427 12.406Q2.438 11.417 2.438 10Q2.438 8.583 3.427 7.594Q4.417 6.604 5.833 6.604H8.354Q8.521 6.604 8.667 6.74Q8.812 6.875 8.812 7.062Q8.812 7.229 8.667 7.375Q8.521 7.521 8.354 7.521H5.833Q4.771 7.521 4.062 8.229Q3.354 8.938 3.354 10Q3.354 11.062 4.062 11.771Q4.771 12.479 5.833 12.479H8.354Q8.521 12.479 8.667 12.625Q8.812 12.771 8.812 12.938Q8.812 13.125 8.667 13.26Q8.521 13.396 8.354 13.396ZM7.542 10.458Q7.354 10.458 7.219 10.312Q7.083 10.167 7.083 10Q7.083 9.812 7.219 9.677Q7.354 9.542 7.542 9.542H12.458Q12.646 9.542 12.781 9.688Q12.917 9.833 12.917 10Q12.917 10.188 12.781 10.323Q12.646 10.458 12.458 10.458ZM11.646 13.396Q11.479 13.396 11.333 13.26Q11.188 13.125 11.188 12.938Q11.188 12.771 11.333 12.625Q11.479 12.479 11.646 12.479H14.167Q15.229 12.479 15.938 11.771Q16.646 11.062 16.646 10Q16.646 8.938 15.938 8.229Q15.229 7.521 14.167 7.521H11.646Q11.479 7.521 11.333 7.375Q11.188 7.229 11.188 7.062Q11.188 6.875 11.333 6.74Q11.479 6.604 11.646 6.604H14.167Q15.583 6.604 16.573 7.594Q17.562 8.583 17.562 10Q17.562 11.417 16.573 12.406Q15.583 13.396 14.167 13.396Z"/></svg>
